www/assets/icons/airplane_ticket.svg

<svg xmlns="http://www.w3.org/2000/svg" width="24" height="24" viewBox="0 0 24 24" fill='currentColor'><path d="M20.19 4H4c-1.1 0-1.99.9-1.99 2v4c1.1 0 1.99.9 1.99 2a2 2 0 0 1-2 2v4c0 1.1.9 2 2 2h16c1.1 0 2-.9 2-2V6c0-1.1-.81-2-1.81-2m-2.46 9.3-8.86 2.36-1.66-2.88.93-.25 1.26.99 2.39-.64-2.4-4.16 1.4-.38 4.01 3.74 2.44-.65a.967.967 0 0 1 1.18.68.99.99 0 0 1-.69 1.19"/></svg>

<svg width="24" height="24" viewBox="0 0 24 24" xmlns="http://www.w3.org/2000/svg" fill='currentColor'><path d="M20.19 4H4C2.9 4 2.01 4.9 2.01 6V10C3.11 10 4 10.9 4 12C4 13.1 3.11 14 2 14V18C2 19.1 2.9 20 4 20H20C21.1 20 22 19.1 22 18V6C22 4.9 21.19 4 20.19 4ZM17.73 13.3L8.87 15.66L7.21 12.78L8.14 12.53L9.4 13.52L11.79 12.88L9.39 8.72L10.79 8.34L14.8 12.08L17.24 11.43C17.75 11.29 18.28 11.6 18.42 12.11C18.55 12.62 18.25 13.15 17.73 13.3Z"/></svg>
